src/assets/filled/Security.svg

<svg width="24" height="24" viewBox="0 0 24 24"  xmlns="http://www.w3.org/2000/svg">
<path d="M18.3301 5.67L6.59008 17.41C6.15008 17.85 5.41008 17.79 5.05008 17.27C3.81008 15.46 3.08008 13.32 3.08008 11.12V6.73C3.08008 5.91 3.70008 4.98 4.46008 4.67L10.0301 2.39C11.2901 1.87 12.6901 1.87 13.9501 2.39L18.0001 4.04C18.6601 4.31 18.8301 5.17 18.3301 5.67Z" />
<path d="M19.27 7.04012C19.92 6.49012 20.91 6.96012 20.91 7.81012V11.1201C20.91 16.0101 17.36 20.5901 12.51 21.9301C12.18 22.0201 11.82 22.0201 11.48 21.9301C10.06 21.5301 8.74001 20.8601 7.61001 19.9801C7.13001 19.6101 7.08001 18.9101 7.50001 18.4801C9.68001 16.2501 16.06 9.75012 19.27 7.04012Z" />
</svg>

<?xml version="1.0" encoding="UTF-8"?>
<svg width="24" height="24" viewBox="0 0 24 24" xmlns="http://www.w3.org/2000/svg">
 <path d="m18.33 5.67-11.74 11.74c-0.44 0.44-1.18 0.38-1.54-0.14-1.24-1.81-1.97-3.95-1.97-6.15v-4.39c0-0.82 0.62-1.75 1.38-2.06l5.57-2.28c1.26-0.52 2.66-0.52 3.92 0l4.05 1.65c0.66 0.27 0.83 1.13 0.33 1.63z"/>
 <path d="m19.27 7.0401c0.65-0.55 1.64-0.08 1.64 0.77v3.31c0 4.89-3.55 9.47-8.4 10.81-0.33 0.09-0.69 0.09-1.03 0-1.42-0.4-2.74-1.07-3.87-1.95-0.48-0.37-0.53-1.07-0.11-1.5 2.18-2.23 8.56-8.73 11.77-11.44z"/>
</svg>
